papirus/32x32/apps/gmail-offline.svg

<?xml version="1.0" encoding="UTF-8" standalone="no"?>
<svg
   xmlns:dc="http://purl.org/dc/elements/1.1/"
   xmlns:cc="http://creativecommons.org/ns#"
   xmlns:rdf="http://www.w3.org/1999/02/22-rdf-syntax-ns#"
   xmlns:svg="http://www.w3.org/2000/svg"
   xmlns="http://www.w3.org/2000/svg"
   xmlns:sodipodi="http://sodipodi.sourceforge.net/DTD/sodipodi-0.dtd"
   xmlns:inkscape="http://www.inkscape.org/namespaces/inkscape"
   width="32"
   height="32"
   viewBox="0 0 32 32"
   version="1.1"
   preserveAspectRatio="xMidYMid"
   id="svg2"
   inkscape:version="0.91 r13725"
   sodipodi:docname="gmail-offline.svg">
  <metadata
     id="metadata33">
    <rdf:RDF>
      <cc:Work
         rdf:about="">
        <dc:format>image/svg+xml</dc:format>
        <dc:type
           rdf:resource="http://purl.org/dc/dcmitype/StillImage" />
        <dc:title></dc:title>
      </cc:Work>
    </rdf:RDF>
  </metadata>
  <sodipodi:namedview
     pagecolor="#ffffff"
     bordercolor="#666666"
     borderopacity="1"
     objecttolerance="10"
     gridtolerance="10"
     guidetolerance="10"
     inkscape:pageopacity="0"
     inkscape:pageshadow="2"
     inkscape:window-width="1600"
     inkscape:window-height="849"
     id="namedview31"
     showgrid="false"
     inkscape:zoom="13.12"
     inkscape:cx="4.9646409"
     inkscape:cy="12.802303"
     inkscape:window-x="0"
     inkscape:window-y="30"
     inkscape:window-maximized="1"
     inkscape:current-layer="svg2" />
  <defs
     id="defs4">
    <linearGradient
       x1="1.3210427"
       y1="127.76156"
       x2="211.76385"
       y2="127.76156"
       id="linearGradient-1"
       gradientTransform="matrix(0.13219746,0,0,0.09003926,1.9763533,5.999997)"
       gradientUnits="userSpaceOnUse">
      <stop
         stop-color="#000000"
         stop-opacity="0.1"
         offset="0%"
         id="stop7" />
      <stop
         stop-color="#000000"
         stop-opacity="0.2"
         offset="100%"
         id="stop9" />
    </linearGradient>
  </defs>
  <g
     id="g4161">
    <path
       d="m 28.25,26.999997 -24.4999999,0 c -0.95,0 -1.75,-0.767688 -1.75,-1.733491 l 0,-17.5330183 c 0,-0.941038 0.775,-1.7334905 1.75,-1.7334905 l 24.4999999,0 c 0.949999,0 1.75,0.7676886 1.75,1.7334905 l 0,17.5330183 c 0,0.965803 -0.775,1.733491 -1.75,1.733491 l 0,0 z"
       id="path13"
       inkscape:connector-curvature="0"
       style="fill:#e3e3e3" />
    <path
       d="m 5.4984531,26.975379 10.4594279,-8.2966 0.07489,-0.443143 L 5.2488248,10.57913 5.223862,26.606093 5.4984531,26.975379 Z"
       id="path15"
       inkscape:connector-curvature="0"
       style="opacity:0.1;fill:#231f20" />
    <path
       sodipodi:nodetypes="scccsscsccs"
       inkscape:connector-curvature="0"
       id="path17"
       d="M 3.7440522,6 C 2.8945029,6 2.1968863,6.6055087 2.0350498,7.3867188 c -1.275e-4,6.157e-4 1.269e-4,0.00134 0,0.00195 -0.03047,0.2308109 -0.031144,0.4082031 -0.031144,0.4082031 l 0,17.4550781 c 0,0.960141 0.7719197,1.758961 1.7420925,1.74805 l 2.2579075,0 0,-19.2031281 C 6.0039058,7.679932 5.9918534,7.5734304 5.96887,7.4785125 5.8529271,6.9789814 5.2612897,6.4158396 4.6569476,6 Z"
       style="fill:#4f8cf6;fill-opacity:1" />
    <path
       sodipodi:nodetypes="ccccssccssc"
       inkscape:connector-curvature="0"
       id="path21"
       d="M 27.654297,6 C 26.816518,6.2389962 25.980902,6.9620342 26,7.7480469 L 26,26.974609 26,27 28.214844,27 C 29.22396,27 30,26.219699 30,25.277344 l 0,-16.0292971 0,-0.375 0,-1.1386719 C 30,6.7685731 29.199999,6 28.25,6 Z"
       style="fill:#4f8cf6;fill-opacity:1" />
    <path
       sodipodi:nodetypes="cccccssc"
       d="M 21,27 2,9 3.1269839,8.9050378 16.057731,18.087923 l 13.9043,-10.0552917 0,17.2440367 C 29.962031,26.21219 29.188183,27 28.214632,27 Z"
       id="path25"
       style="fill:url(#linearGradient-1)"
       inkscape:connector-curvature="0" />
    <path
       sodipodi:nodetypes="cccccccccc"
       inkscape:connector-curvature="0"
       id="path4243"
       d="M 28.046875,6 C 27.596287,5.99498 27.157206,6.1246819 26.800781,6.4003906 L 16,14.5 5.1992188,6.4003906 C 3.1759821,4.8576486 0.79990845,8.1696268 2.8007812,9.5996094 L 14.800781,18.599609 c 0.710815,0.532486 1.687623,0.532486 2.398438,0 L 28.592131,10.054925 29.199219,9.5996094 C 30.683362,8.5387358 29.970859,6.0238513 28.046875,6 Z"
       style="color:#000000;font-style:normal;font-variant:normal;font-weight:normal;font-stretch:normal;font-size:medium;line-height:normal;font-family:sans-serif;text-indent:0;text-align:start;text-decoration:none;text-decoration-line:none;text-decoration-style:solid;text-decoration-color:#000000;letter-spacing:normal;word-spacing:normal;text-transform:none;direction:ltr;block-progression:tb;writing-mode:lr-tb;baseline-shift:baseline;text-anchor:start;white-space:normal;clip-rule:nonzero;display:inline;overflow:visible;visibility:visible;opacity:1;isolation:auto;mix-blend-mode:normal;color-interpolation:sRGB;color-interpolation-filters:linearRGB;solid-color:#000000;solid-opacity:1;fill:#4f8cf6;fill-opacity:1;fill-rule:evenodd;stroke:none;stroke-width:4;stroke-linecap:round;stroke-linejoin:round;stroke-miterlimit:4;stroke-dasharray:none;stroke-dashoffset:0;stroke-opacity:1;color-rendering:auto;image-rendering:auto;shape-rendering:auto;text-rendering:auto;enable-background:accumulate" />
    <path
       id="path4251"
       d="M 3.75,6 C 2.775,6 2,6.793337 2,7.734375 l 0,1 C 2,7.793337 2.775,7 3.75,7 l 24.5,0 C 29.199999,7 30,7.7685731 30,8.734375 l 0,-1 C 30,6.7685731 29.199999,6 28.25,6 L 3.75,6 Z"
       style="opacity:0.1;fill:#ffffff;fill-opacity:1"
       inkscape:connector-curvature="0" />
    <path
       id="path4256"
       d="m 2,24.265625 0,1 C 2,26.231428 2.8,27 3.75,27 l 24.5,0 C 29.225,27 30,26.231428 30,25.265625 l 0,-1 C 30,25.231428 29.225,26 28.25,26 L 3.75,26 C 2.8,26 2,25.231428 2,24.265625 Z"
       style="opacity:0.3;fill:#000000;fill-opacity:1"
       inkscape:connector-curvature="0" />
  </g>
</svg>

<?xml version="1.0" encoding="UTF-8" standalone="no"?>
<svg id="svg2" xmlns:rdf="http://www.w3.org/1999/02/22-rdf-syntax-ns#" xmlns="http://www.w3.org/2000/svg" viewBox="0 0 32 32" width="32" version="1.1" preserveAspectRatio="xMidYMid" xmlns:cc="http://creativecommons.org/ns#" height="32" xmlns:dc="http://purl.org/dc/elements/1.1/">
 <metadata id="metadata33">
  <rdf:RDF>
   <cc:Work rdf:about="">
    <dc:format>image/svg+xml</dc:format>
    <dc:type rdf:resource="http://purl.org/dc/dcmitype/StillImage"/>
    <dc:title/>
   </cc:Work>
  </rdf:RDF>
 </metadata>
 <path id="path13" fill="#ccc" d="m28.25 27h-24.5c-0.95 0-1.75-0.76769-1.75-1.7335v-17.533c0-0.94104 0.775-1.7335 1.75-1.7335h24.5c0.95 0 1.75 0.76769 1.75 1.7335v17.533c0 0.9658-0.775 1.7335-1.75 1.7335z"/>
 <path id="path17" fill="#4f8cf6" d="m3.7441 6c-0.8496 0-1.5472 0.6055-1.7091 1.3867-0.0001275 0.0006157 0.0001269 0.00134 0 0.00195-0.03047 0.23081-0.031144 0.4082-0.031144 0.4082v17.455c0 0.96014 0.77192 1.759 1.7421 1.748h2.2579v-19.203c0-0.1171-0.012-0.2236-0.035-0.3185-0.116-0.4995-0.7076-1.0627-1.312-1.4785z"/>
 <path id="path21" fill="#4f8cf6" d="m27.654 6c-0.837 0.239-1.673 0.962-1.654 1.748v19.227 0.025h2.215c1.009 0 1.785-0.78 1.785-1.723v-16.029-0.375-1.1387c0-0.9654-0.8-1.734-1.75-1.734z"/>
 <path id="path4243" style="color-rendering:auto;text-decoration-color:#000000;color:#000000;isolation:auto;mix-blend-mode:normal;shape-rendering:auto;solid-color:#000000;block-progression:tb;text-decoration-line:none;text-decoration-style:solid;image-rendering:auto;white-space:normal;text-indent:0;text-transform:none" d="m28.047 6c-0.451-0.005-0.89 0.1247-1.246 0.4004l-10.801 8.0996-10.801-8.0996c-2.023-1.5428-4.3991 1.7692-2.3982 3.1992l12 9.0004c0.71082 0.53249 1.6876 0.53249 2.3984 0l11.393-8.545 0.607-0.4554c1.484-1.0609 0.772-3.5757-1.152-3.5996z" fill-rule="evenodd" fill="#4f8cf6"/>
 <path id="path4251" opacity=".1" d="m3.75 6c-0.975 0-1.75 0.7933-1.75 1.7344v1c0-0.9411 0.775-1.7344 1.75-1.7344h24.5c0.95 0 1.75 0.7686 1.75 1.7344v-1c0-0.9658-0.8-1.7344-1.75-1.7344h-24.5z" fill="#fff"/>
 <path id="path4256" opacity=".2" d="m2 25.266v1c0 0.965 0.8 1.734 1.75 1.734h24.5c0.975 0 1.75-0.769 1.75-1.734v-1c0 0.965-0.775 1.734-1.75 1.734h-24.5c-0.95 0-1.75-0.769-1.75-1.734z"/>
</svg>
